X: 42193
T: Wattentaler, The
R: mazurka
M: 3/4
K: Gmajor
|:d (3fed|d2 g>d B>G|F2 A>d F>e|d2 f>d c>F|G2 B>d G>e|
d2 g>d B>G|F2 A>d f>e|d2 f>d (3cBA|G3:|
|:g (3gfe|d2 B>d B>d|d2 c>d F>e|d2 c>d c>d|d2 (3Bcd G>e|
d2 B>d G>d|(3ded c>d F2|d2 ^c>d e>f|g3:|

